X: 1
T: Highlandman Who Kissed His Granny, The
M: 4/4
L: 1/8
R: reel
K: Ador
cgge g2 ge | cgge dBGB | cgge g2 eg |1 afge dBGB |2 afge dB B2 :|
ce A2 ABcA | ceAe dBGB | ce A2 ABcd | egge dBGB |
ceAe ceAe | ceAe dBGB | ce A2 ABcd | egge dBGB |
